COLOR/action 16/16/entry-new.svg

<svg height="16" width="16" xmlns="http://www.w3.org/2000/svg"><g stroke-width=".9375" transform="matrix(-1 0 0 1 15.7 -.2)"><path d="m5.7437429 5.800953-2.0686937.5254626 3.5485839 3.5485839h1.7138672v1.8750005h1.8749997v.9375.9375h.9375.9375v1.713867l.161133.161133h2.651367z" fill="#e8973e"/><path d="m6.3256838 3.674316-.5819409 2.126637 9.7562571 9.699047v-2.651367z" fill="#fdc92b"/><path d="m10.511719.30078125a4.6875 4.6875 0 0 0 -4.6875002 4.68749995 4.6875 4.6875 0 0 0 4.6875002 4.6875 4.6875 4.6875 0 0 0 4.6875-4.6875 4.6875 4.6875 0 0 0 -4.6875-4.68749995zm.9375 1.87499995a1.875 1.875 0 0 1 1.875 1.875 1.875 1.875 0 0 1 -1.875 1.875 1.875 1.875 0 0 1 -1.8750002-1.875 1.875 1.875 0 0 1 1.8750002-1.875z" fill="#fdc92b" transform="matrix(-1 0 0 1 15.7 .2)"/><path d="m5.1875003.49999951a4.6875 4.6875 0 0 0 -4.68749999 4.68749999 4.6875 4.6875 0 0 0 .00915469.1849365 4.6875 4.6875 0 0 1 4.6783453-4.40368649 4.6875 4.6875 0 0 1 4.6765134 4.48974609 4.6875 4.6875 0 0 0 .0109866-.2709961 4.6875 4.6875 0 0 0 -4.6875-4.68749999zm4.4787591 6.51672369a4.6875 4.6875 0 0 1 -.1190185.3497314l5.9527591 5.9509284v-.46875z" fill="#fff" opacity=".3"/><path d="m.509155 4.903686a4.6875 4.6875 0 0 0 -.009155.2838135 4.6875 4.6875 0 0 0 4.6875 4.6875 4.6875 4.6875 0 0 0 1.7120362-.324097l.3240966.324097h1.7138672v-.46875h-1.7138669l-.3240966-.3240967a4.6875 4.6875 0 0 1 -1.7120362.3240967 4.6875 4.6875 0 0 1 -4.6783453-4.5025635zm9.3566897.08606a4.6875 4.6875 0 0 1 -.3186038 1.4392086l.1190185.1190186a4.6875 4.6875 0 0 0 .2087409-1.3604737 4.6875 4.6875 0 0 0 -.0091556-.1977535zm-.9283444 6.291504v.46875h1.8749997v-.46875zm1.8749997 1.875v.46875h.9375.9375v-.46875h-.9375zm1.875 1.713867v.46875l.161133.161133h2.651367v-.46875h-2.651367z" opacity=".2"/></g><g stroke-width="1.03486" transform="matrix(.99999999 0 0 1.0001356 -11.816274 .734253)"><g><circle cx="10.763678" cy="-23.316275" fill="#45a925" r="4.5" transform="rotate(90)"/><g fill="#f4f4f4"><rect height="1" rx=".266667" ry=".333333" width="5" x="20.816277" y="10.263678"/><rect height="5" rx=".333333" ry=".266667" width="1" x="22.816275" y="8.263678"/></g></g><g><path d="m8 6.7480469a4.5 4.5006102 0 0 0 -4.5 4.5019531 4.5 4.5006102 0 0 0 .0117188.292969 4.5 4.5006102 0 0 1 4.4882812-4.2949221 4.5 4.5006102 0 0 1 4.488281 4.2089841 4.5 4.5006102 0 0 0 .011719-.207031 4.5 4.5006102 0 0 0 -4.5-4.5019531z" fill="#fff" opacity=".3" stroke-width="1.03493" transform="matrix(1 0 0 .99986443 15.316276 -.484187)"/><g fill="#f4f4f4"><rect height="1" rx=".266667" ry=".333333" width="5" x="20.816277" y="10.263678"/><rect height="5" rx=".333333" ry=".266667" width="1" x="22.816275" y="8.263678"/></g><path d="m23.316277 15.263677a4.5 4.5 0 0 0 4.5-4.501342 4.5 4.5 0 0 0 -.01172-.292929 4.5 4.5 0 0 1 -4.48828 4.294339 4.5 4.5 0 0 1 -4.488281-4.208413 4.5 4.5 0 0 0 -.01172.207003 4.5 4.5 0 0 0 4.5 4.501342z" opacity=".2" stroke-width="1.03486"/></g></g></svg>

<?xml version="1.0" encoding="UTF-8" standalone="no"?>
<svg
   xmlns:dc="http://purl.org/dc/elements/1.1/"
   xmlns:cc="http://creativecommons.org/ns#"
   xmlns:rdf="http://www.w3.org/1999/02/22-rdf-syntax-ns#"
   xmlns:svg="http://www.w3.org/2000/svg"
   xmlns="http://www.w3.org/2000/svg"
   xmlns:sodipodi="http://sodipodi.sourceforge.net/DTD/sodipodi-0.dtd"
   xmlns:inkscape="http://www.inkscape.org/namespaces/inkscape"
   height="16"
   width="16"
   version="1.1"
   id="svg20"
   sodipodi:docname="entry-new.svg"
   inkscape:version="0.92.4 (5da689c313, 2019-01-14)">
  <metadata
     id="metadata26">
    <rdf:RDF>
      <cc:Work
         rdf:about="">
        <dc:format>image/svg+xml</dc:format>
        <dc:type
           rdf:resource="http://purl.org/dc/dcmitype/StillImage" />
      </cc:Work>
    </rdf:RDF>
  </metadata>
  <defs
     id="defs24" />
  <sodipodi:namedview
     pagecolor="#ffffff"
     bordercolor="#808080"
     borderopacity="1"
     objecttolerance="10"
     gridtolerance="10"
     guidetolerance="10"
     inkscape:pageopacity="0"
     inkscape:pageshadow="2"
     inkscape:window-width="1920"
     inkscape:window-height="1016"
     id="namedview22"
     showgrid="false"
     inkscape:zoom="52.4375"
     inkscape:cx="4.3480334"
     inkscape:cy="8"
     inkscape:window-x="0"
     inkscape:window-y="27"
     inkscape:window-maximized="1"
     inkscape:current-layer="svg20" />
  <g
     stroke-width=".9375"
     transform="matrix(-1 0 0 1 15.7 -.2)"
     id="g14">
    <path
       d="M 5.7437429,5.800953 3.6750492,6.3264156 7.2236331,9.8749995 H 8.9375003 V 11.75 H 10.8125 v 0.9375 0.9375 h 0.9375 0.9375 v 1.713867 L 12.848633,15.5 H 15.5 Z"
       id="path2"
       inkscape:connector-curvature="0"
       style="fill:#e8973e"
       sodipodi:nodetypes="cccccccccccccc" />
    <path
       d="M 6.3256838,3.674316 5.7437429,5.800953 15.5,15.5 v -2.651367 z"
       id="path4"
       inkscape:connector-curvature="0"
       style="fill:#fdc92b"
       sodipodi:nodetypes="ccccc" />
    <path
       d="M 10.511719 0.30078125 A 4.6875 4.6875 0 0 0 5.8242188 4.9882812 A 4.6875 4.6875 0 0 0 10.511719 9.6757812 A 4.6875 4.6875 0 0 0 15.199219 4.9882812 A 4.6875 4.6875 0 0 0 10.511719 0.30078125 z M 11.449219 2.1757812 A 1.875 1.875 0 0 1 13.324219 4.0507812 A 1.875 1.875 0 0 1 11.449219 5.9257812 A 1.875 1.875 0 0 1 9.5742188 4.0507812 A 1.875 1.875 0 0 1 11.449219 2.1757812 z "
       transform="matrix(-1,0,0,1,15.7,0.2)"
       id="circle6"
       style="fill:#fdc92b;fill-opacity:1" />
    <path
       d="m5.1875003.49999951a4.6875 4.6875 0 0 0 -4.68749999 4.68749999 4.6875 4.6875 0 0 0 .00915469.1849365 4.6875 4.6875 0 0 1 4.6783453-4.40368649 4.6875 4.6875 0 0 1 4.6765134 4.48974609 4.6875 4.6875 0 0 0 .0109866-.2709961 4.6875 4.6875 0 0 0 -4.6875-4.68749999zm4.4787591 6.51672369a4.6875 4.6875 0 0 1 -.1190185.3497314l5.9527591 5.9509284v-.46875z"
       fill="#fff"
       opacity=".3"
       id="path10" />
    <path
       d="m.509155 4.903686a4.6875 4.6875 0 0 0 -.009155.2838135 4.6875 4.6875 0 0 0 4.6875 4.6875 4.6875 4.6875 0 0 0 1.7120362-.324097l.3240966.324097h1.7138672v-.46875h-1.7138669l-.3240966-.3240967a4.6875 4.6875 0 0 1 -1.7120362.3240967 4.6875 4.6875 0 0 1 -4.6783453-4.5025635zm9.3566897.08606a4.6875 4.6875 0 0 1 -.3186038 1.4392086l.1190185.1190186a4.6875 4.6875 0 0 0 .2087409-1.3604737 4.6875 4.6875 0 0 0 -.0091556-.1977535zm-.9283444 6.291504v.46875h1.8749997v-.46875zm1.8749997 1.875v.46875h.9375.9375v-.46875h-.9375zm1.875 1.713867v.46875l.161133.161133h2.651367v-.46875h-2.651367z"
       opacity=".2"
       id="path12" />
  </g>
  <g
     id="g856"
     transform="translate(3.5000015,0.24999964)">
    <g
       id="g18"
       transform="matrix(0.99999999,0,0,1.0001356,-15.316276,0.48425301)"
       style="stroke-width:1.03486001">
      <circle
         id="circle10"
         transform="rotate(90)"
         r="4.5"
         cy="-23.316275"
         cx="10.763678"
         style="fill:#45a925" />
      <g
         id="g16"
         style="fill:#f4f4f4">
        <rect
           id="rect12"
           y="10.263678"
           x="20.816277"
           width="5"
           ry="0.33333299"
           rx="0.26666701"
           height="1" />
        <rect
           id="rect14"
           y="8.2636776"
           x="22.816275"
           width="1"
           ry="0.26666701"
           rx="0.33333299"
           height="5" />
      </g>
    </g>
    <g
       transform="matrix(0.99999999,0,0,1.0001356,-15.316276,0.48425301)"
       id="g841"
       style="stroke-width:1.03486001">
      <path
         id="circle833"
         transform="matrix(1,0,0,0.99986443,15.316276,-0.48418736)"
         d="M 8,6.7480469 A 4.5,4.5006102 0 0 0 3.5,11.25 4.5,4.5006102 0 0 0 3.5117188,11.542969 4.5,4.5006102 0 0 1 8,7.2480469 4.5,4.5006102 0 0 1 12.488281,11.457031 4.5,4.5006102 0 0 0 12.5,11.25 4.5,4.5006102 0 0 0 8,6.7480469 Z"
         style="opacity:0.3;fill:#ffffff;fill-opacity:1;stroke-width:1.03493011"
         inkscape:connector-curvature="0" />
      <g
         id="g839"
         style="fill:#f4f4f4">
        <rect
           height="1"
           rx="0.26666701"
           ry="0.33333299"
           width="5"
           x="20.816277"
           y="10.263678"
           id="rect835" />
        <rect
           height="5"
           rx="0.33333299"
           ry="0.26666701"
           width="1"
           x="22.816275"
           y="8.2636776"
           id="rect837" />
      </g>
      <path
         inkscape:connector-curvature="0"
         style="opacity:0.2;fill:#000000;fill-opacity:1;stroke-width:1.0348599"
         d="m 23.316277,15.263677 a 4.5,4.5 0 0 0 4.5,-4.501342 4.5,4.5 0 0 0 -0.01172,-0.292929 4.5,4.5 0 0 1 -4.48828,4.294339 4.5,4.5 0 0 1 -4.488281,-4.208413 4.5,4.5 0 0 0 -0.01172,0.207003 4.5,4.5 0 0 0 4.5,4.501342 z"
         id="path854" />
    </g>
  </g>
</svg>
